X: 1
T: Iz dolu ide
R: lesnoto
O: Bulgaria
Z: 1998 by John Chambers <jc@trillian.mit.edu> http://trillian.mit.edu/~jc/music/
M: 7/8
L: 1/8
K: D
P: Vocal:
|: "D"[a3f3] [a2f2] [b2g2] | [a2f2][ge] [f4d4] \
| "A"[eA][d2A] [d2A] [eA][fA] | [eG][d2F] "D"[d4F] :|
|: "D"[d3A3] [f2d2] [f2d2] | "A"[g3e3] [g2e2] [fd][ge] \
| "D"[a3f3] "A"[g2e2] [ge][af] | [g2e2][fd] "D"[f4d4] :|
P: Intstr:
|: "G"[GB][Ac][Bd] [Bd][Ac] [df][=ce] | [B2d2][Ac] "D"[Ac][GB]  [FA][DF] \
| "A"[F2A2][EG] [EG][DF] [EG][FA] |1 "D"[D2F2][EG] [F4A4] :|2 "D"[D3F3] [D4F4] |]
